storage/app/icons/phosphoricons/thin/church-thin.svg

<svg xmlns="http://www.w3.org/2000/svg" fill="currentColor" viewBox="0 0 256 256"><path d="M226.06 148.57 188 125.74V104a4 4 0 0 0-2-3.47l-54-30.85V44h20a4 4 0 0 0 0-8h-20V16a4 4 0 0 0-8 0v20h-20a4 4 0 0 0 0 8h20v25.68l-54 30.85a4 4 0 0 0-2 3.47v21.74l-38.06 22.83A4 4 0 0 0 28 152v64a4 4 0 0 0 4 4h80a4 4 0 0 0 4-4v-48a12 12 0 0 1 24 0v48a4 4 0 0 0 4 4h80a4 4 0 0 0 4-4v-64a4 4 0 0 0-1.94-3.43M36 154.26l32-19.2V212H36Zm92-6.26a20 20 0 0 0-20 20v44H76V106.32l52-29.71 52 29.71V212h-32v-44a20 20 0 0 0-20-20m92 64h-32v-76.94l32 19.2Z"/></svg>

<svg xmlns="http://www.w3.org/2000/svg" viewBox="0 0 256 256" fill="currentColor"><path d="M226.06,148.57,188,125.74V104a4,4,0,0,0-2-3.47L132,69.68V44h20a4,4,0,0,0,0-8H132V16a4,4,0,0,0-8,0V36H104a4,4,0,0,0,0,8h20V69.68L70,100.53A4,4,0,0,0,68,104v21.74L29.94,148.57A4,4,0,0,0,28,152v64a4,4,0,0,0,4,4h80a4,4,0,0,0,4-4V168a12,12,0,0,1,24,0v48a4,4,0,0,0,4,4h80a4,4,0,0,0,4-4V152A4,4,0,0,0,226.06,148.57ZM36,154.26l32-19.2V212H36ZM128,148a20,20,0,0,0-20,20v44H76V106.32l52-29.71,52,29.71V212H148V168A20,20,0,0,0,128,148Zm92,64H188V135.06l32,19.2Z"/></svg>
